!!!COM: Schiørring, Niels
!!!CDT: 1743-1798
!!!OPR@@DA: Choral-Bog
!!!ONM: 31
!!!OTL@@DA: Hielp Gud, at jeg nu kunde
**kern	**fb	**kern	**kern	**kern	**kern	**kern	**kern	**kern
*part6	*part6	*part6	*part5	*part5	*part4	*part3	*part2	*part1
*staff8	*	*staff7	*staff6	*staff5	*staff4	*staff3	*staff2	*staff1
*clefF4	*	*clefC1	*clefF4	*clefC1	*clefF4	*clefC4	*clefC3	*clefC1
*mclefF4	*	*mclefG2	*mclefF4	*mclefG2	*mclefF4	*mclefGv2	*mclefG2	*mclefG2
*k[b-]	*	*k[b-]	*k[b-]	*k[b-]	*k[b-]	*k[b-]	*k[b-]	*k[b-]
*F:	*	*F:	*F:	*F:	*F:	*F:	*F:	*F:
*M4/4	*	*M4/4	*M4/4	*M4/4	*M4/4	*M4/4	*M4/4	*M4/4
*met(c)	*	*met(c)	*met(c)	*met(c)	*met(c)	*met(c)	*met(c)	*met(c)
*MM180	*	*MM180	*MM180	*MM180	*MM180	*MM180	*MM180	*MM180
*	*above	*	*	*	*	*	*	*
*	*slash	*	*	*	*	*	*	*
*	*	*	*^	*^	*^	*	*	*
=1	=1	=1	=1	=1	=1	=1	=1	=1	=1	=1	=1
2FF	.	2f	2A>	2FF	2f	2c	2F	2FF	2A	2c	2f
=2	=2	=2	=2	=2	=2	=2	=2	=2	=2	=2	=2
2F	.	2a	2F	2F	2a	2f	2F	1r	2F	2c	2a
2E-X	2	2a	2c	2E-X	2a	2f	2E-X	.	2c	2f	2a
=3	=3	=3	=3	=3	=3	=3	=3	=3	=3	=3	=3
2D	6	2b-	2B-	2D	2b-	2f	2D	1r	2d	2f	2b-
2G	.	2b-	[2B-	2G	2b-	2d	2G	.	[2B-	2d	2b-
=4	=4	=4	=4	=4	=4	=4	=4	=4	=4	=4	=4
2E	6 5	1cc	2B-]	2E	1cc	2g	(2E	1r	(2B-]	(2g	1cc
2F	.	.	2A	2F	.	2f	2F)	.	2A)	2f)	.
=5	=5	=5	=5	=5	=5	=5	=5	=5	=5	=5	=5
2C;	.	2cc;	2G;	2C	2cc;	2e	2C;	1r	2G;	2e;	2cc;
2A	6	2cc	2c	2A	2cc	2f	2A	.	2c	2f	2cc
=6	=6	=6	=6	=6	=6	=6	=6	=6	=6	=6	=6
2E	6	2cc	1c	2E	2cc	2g	2E	1r	2c	2g	2cc
2F	.	2a	.	2F	2a	2f	2F	.	2c	2f	2a
=7	=7	=7	=7	=7	=7	=7	=7	=7	=7	=7	=7
2BB-	.	2b-	2d>	2BB-	2b-	2.f	2BB-	1r	2d	[2f	2b-
2C	4	2gM	4c	2C	2gM	.	2C	.	(4c	(4f]	2gM
.	3	.	4B-	.	.	4e	.	.	4B-)	4e)	.
=8	=8	=8	=8	=8	=8	=8	=8	=8	=8	=8	=8
2FF;	.	2f;	2A>	2FF;	2f;	2c	2F;	2FF	2A;	2f;	2f;
*	*	*	*	*	*	*	*v	*v	*	*	*
=9:|!	=9:|!	=9:|!	=9:|!	=9:|!	=9:|!	=9:|!	=9:|!	=9:|!	=9:|!	=9:|!
2F	.	2cc	2A	2F	2cc	2a	2F	2A	2f	2cc
=10	=10	=10	=10	=10	=10	=10	=10	=10	=10	=10
2E	6	2cc	1c	2E	2cc	2g	2E	2c	2g	2cc
2C	7	2b-	.	2C	2b-	2e	2C	2c	2e	2b-
=11	=11	=11	=11	=11	=11	=11	=11	=11	=11	=11
2F	.	2a	2c	2F	2a	2f	2F	2c	2f	2a
2C#X	5	2g	2A	2C#X	2g	2e	2C#X	2A	2e	2g
=12	=12	=12	=12	=12	=12	=12	=12	=12	=12	=12
2D	.	2f	2A	2D	2f	1d	2D	2A	2d	2f
2BB-	6	2gM	2d>	2BB-	2gM	.	2BB-	2d	2d	2gM
=13	=13	=13	=13	=13	=13	=13	=13	=13	=13	=13
2AA;	#	2a;	2c#X>	2AA;	2a;	2e	2AA;	2c#X;	2e;	2a;
2AA	6 n	2cc	2cn>	2AA	2ccni	2f	2AA	2c	2f	2cc
=14	=14	=14	=14	=14	=14	=14	=14	=14	=14	=14
2BB-	.	2dd	2B-	2BB-	2dd	2f	2BB-	2B-	2f	2dd
4C	.	2cc	2G	4C	2cc	4e	(4C	2G	(4e	2cc
4D	.	.	.	4D	.	4f	4D)	.	4f)	.
=15	=15	=15	=15	=15	=15	=15	=15	=15	=15	=15
2E	6	2cc	2G	2E	2cc	2g	2E	2G	2g	2cc
2F	.	2a	2c	2F	2a	2f	2F	2c	2f	2a
=16	=16	=16	=16	=16	=16	=16	=16	=16	=16	=16
2E	6	(2cc	2c	2E	2cc	1g	(2E	(2c	1g	(2cc
2C	7	2b-)	2e>	2C	2b-	.	2C)	2e)	.	2b-)
=17	=17	=17	=17	=17	=17	=17	=17	=17	=17	=17
2D;	.	2a;	2f>	2D;	2a;	2f	2D;	2f;	2f;	2a;
2G	.	2b-	2d>	2G	2b-	2g	2G	2d	2g	2b-
=18	=18	=18	=18	=18	=18	=18	=18	=18	=18	=18
2D	6	2cc	1c>	2D	2cc	2g	2D	2c	2g	2cc
2F	.	2a	.	2F	2a	2f	2F	2c	2f	2a
=19	=19	=19	=19	=19	=19	=19	=19	=19	=19	=19
2BB-	.	2b-	2d>	2BB-	2b-	2.f	2BB-	2d	[2f	2b-
2C	4	2gM	4c	2C	2gM	.	2C	(4c	(4f]	2gM
.	3	.	4B-	.	.	4e	.	4B-)	4e)	.
=20	=20	=20	=20	=20	=20	=20	=20	=20	=20	=20
*	*	*	*	*	*	*	*^	*	*	*
2FF;	.	2f;	2A>	2FF;	2f;	2c	2F;	2FF	2A;	2f;	2f;
*	*	*	*v	*v	*	*	*v	*v	*	*	*
*	*	*	*	*v	*v	*	*	*	*
==	==	==	==	==	==	==	==	==
*-	*-	*-	*-	*-	*-	*-	*-	*-
!!!system-decoration: {(s1,s2,s3,s4)}{(s5,s6)}{(s7,s8)}
!!!RDF**kern: i = editorial accidental, paren
!!!RDF**kern: > = above
!!!RDF**kern: < = below
!!!AGN: chorale
!!!EED: Derek Remeš
!!!EED2: Victor Phan
!!!END: 2023/11/28
!!!ENC: Wolfgang Drescher
!!!EEV: 2024/01/09
!!!title: @{ONM}. @{OTL}
!!!verovio: mnumInterval 1